!!!OTL: Me One Man
!!!ONM: 90.
**kern
*clefG2
*k[b-]
*F:
*M6/8
*MM144
{8c
=1
4.f
8f
8r
8f
=2
4.f
8f
8r}
{8f
=3
4e
8f
4g
8a
=4
8g
[4f
8f]
8r}
{8a
=5
4.b-
8b-
8r
8b-
=6
4.a
8a
8r}
{8a
=7
4g
8g
4a
8b-
=8
4.cc
4r}
{8a
=9
8b-
8b-
8b-
8b-
8b-
8b-
=10
8a
8a
8a
8a
8a}
{8a
=11
4.g
4.g
=12
4.f
4r}
{8a
=13
4b-
8b-
4b-
16b-
16b-
=14
8a
8a
8a
8a}
{8cc
8cc
=15
8cc
8cc
8cc
8b-
8b-
8g
=16
4.f
4r}
==
*-
!!!CNT: Folksongs of Maritime Canada
!!!MRD: 1928///-1932///
!!!OCL: Helen Creighton
!!!YOR: Songs and Ballads from Nova Scotia
!!!PPR: J.M. Dent & Sons, Limited
!!!PPP: Toronto, Canada
!!!PDT: 1932///
!!!reprint: Dover Publications, 1992: ISBN 0-486-21703-5
!!!ENC1: Craig Stuart Sapp (music and bibliographic data)                       
!!!ENC2: Marcus Pearce (phrase markings and key designations)                   
!!!ENC3: Darrell Conklin (phrase markings and key designations)   
!!!END: 2002/04/10/
!!!EEV: 2004/06/05
!!!MPN: Mr. Richard Hartlan
!!!PPG: 196
!!!EFL: 91/152
!!!ARE: Canada; Nova Scotia
!!!verses: 2
!!!VTS: 1677566004
